X:1
T:Hordville, CMD
T:Hordville, CMD
T:Benjamin Carl Unseld, 1901
T:Public Domain Courtesy of the Cyber Hymnal™
C:Benjamin Carl Unseld, 1901
Z:Public Domain
Z:Courtesy of the Cyber Hymnal™
%%score ( 1 2 ) ( 3 4 )
L:1/8
Q:1/4=110
M:4/4
K:Bb
V:1 treble 
V:2 treble 
V:3 bass 
V:4 bass 
V:1
 F2 | [DB]3 [DB] (BF) ([B,D][CE]) | [DF]2 [EG]2 [DF]2 [FB]2 | [Fd]3 [Fd] [Ec]2 [Ec]2 | %4
 [DB]6 [FB]2 | [EG]3 [FA] ([GB][^FA]) ([GB][EG]) | [DF]3 [CE] [B,D]2 [Fd]2 | %7
 [Fc]3 [Fc] [=Ed]2 [Ec]2 | F6 F2 | .[Fe]2 .[Fe]2 .[Fe]2 (dc) | ([Fd][DB]) ([B,D][EG]) [DF]2 F2 | %11
 [EA]3 [EG] [EF]2 [EG]2 | G2 F2 z2 [DF]2 | [FB]2 [FB]2 [Fc]2 [Fd]2 | %14
 [Gf]3 [Ge] !fermata![GB]2 [Gc]2 | [Fd]3 [DB] [Fd]2 [Ec]2 | [DB]6 |] %17
V:2
 F2 | x4 D2 x2 | x8 | x8 | x8 | x8 | x8 | x8 | F6 F2 | x6 F2 | x6 F2 | x8 | D4 x4 | x8 | x8 | x8 | %16
 x6 |] %17
V:3
 F,2 | [B,,F,]3 [B,,F,] [B,,F,]2 [B,,F,]2 | [B,,B,]2 [B,,B,]2 [B,,B,]2 [D,B,]2 | %3
 [F,B,]3 [F,B,] [F,A,]2 [F,A,]2 | [B,,B,]6 [B,,B,]2 | [E,B,]3 [E,B,] (B,C) [E,B,]2 | %6
 [B,,B,]3 [B,,B,] [B,,F,]2 [B,,B,]2 | [C,A,]3 [C,A,] [C,B,]2 [C,B,]2 | [F,A,]6 F,2 | %9
 .[F,A,]2 .[F,A,]2 .[F,A,]2 [F,A,]2 | [B,,B,]2 [B,,B,]2 [B,,B,]2 [D,B,]2 | %11
 [F,C]3 [F,B,] [F,A,]2 [F,A,]2 | [B,,B,]4 z2 [B,,B,]2 | [D,B,]2 [D,B,]2 [F,A,]2 B,2 | %14
 [E,B,]3 [E,B,] !fermata![E,B,]2 [=E,B,]2 | [F,B,]3 [F,B,] [F,B,]2 [F,A,]2 | [B,,B,]6 |] %17
V:4
 F,2 | x8 | x8 | x8 | x8 | x4 E,2 x2 | x8 | x8 | x6 F,2 | x8 | x8 | x8 | x8 | x6 B,2 | x8 | x8 | %16
 x6 |] %17

